icons/op-wiki2-24.svg

<svg width="24" height="24" viewBox="0 0 24 24" fill="none" xmlns="http://www.w3.org/2000/svg">
<path d="M11.4667 7.02941C9.55294 6 6.13333 6 6.13333 6V15C6.13333 15 9.55294 15 11.4667 16.0294V7.02941ZM12.5333 7.02941C14.4471 6 17.8667 6 17.8667 6V15C17.8667 15 14.4471 15 12.5333 16.0294V7.02941ZM18.9333 7V16.1471L12.5333 17H11.4667L5.06667 16.1471V7H4V17L11.4667 18H12.5333L20 17V7H18.9333Z" fill="black"/>
</svg>

<svg xmlns="http://www.w3.org/2000/svg" width="24" height="24" viewBox="0 0 24 24"><path d="M11.467 7.029C9.553 6 6.133 6 6.133 6v9s3.42 0 5.334 1.029v-9Zm1.066 0C14.447 6 17.867 6 17.867 6v9s-3.42 0-5.334 1.029v-9Zm6.4-.029v9.147l-6.4.853h-1.066l-6.4-.853V7H4v10l7.467 1h1.066L20 17V7h-1.067Z"/></svg>
